symbols/web/child_friendly/materialsymbolsoutlined/child_friendly_wght600gradN25fill1_20px.svg

<svg xmlns="http://www.w3.org/2000/svg" height="20" width="20"><path d="M7.062 18.708q-.583 0-1-.437-.416-.438-.416-1.021 0-.562.416-.99.417-.427 1-.427.584 0 1 .427.417.428.417.99 0 .583-.417 1.021-.416.437-1 .437Zm9.25 0q-.583 0-1.02-.437-.438-.438-.438-1.021 0-.562.438-.99.437-.427 1.02-.427.563 0 .99.427.427.428.427.99 0 .583-.427 1.021-.427.437-.99.437Zm-4.25-12.687L8.667 1.938q.729-.313 1.448-.48.718-.166 1.573-.166 1.27 0 2.312.333 1.042.333 1.938 1.042Zm-2.208 9.271q-1.875 0-3.146-1.271-1.27-1.271-1.27-3.167V4.396l-.25-.313q-.209-.229-.376-.343-.166-.115-.395-.115-.355 0-.563.271-.208.271-.208.792H1.458q0-1.355.834-2.303.833-.947 2.125-.947.791 0 1.385.322.594.323 1.01.886l8.813 10.687q.479.563.156 1.261-.323.698-1.093.698Zm0-2.188h2.75L7.625 7.062v3.792q0 .979.635 1.615.636.635 1.594.635Zm0 0q-.958 0-1.594-.635-.635-.636-.635-1.615V7.062l2.479 3 2.5 3.042Z"/></svg>

<svg xmlns="http://www.w3.org/2000/svg" height="20" width="20"><path d="M7.062 18.708Q6.479 18.708 6.062 18.271Q5.646 17.833 5.646 17.25Q5.646 16.688 6.062 16.26Q6.479 15.833 7.062 15.833Q7.646 15.833 8.062 16.26Q8.479 16.688 8.479 17.25Q8.479 17.833 8.062 18.271Q7.646 18.708 7.062 18.708ZM16.312 18.708Q15.729 18.708 15.292 18.271Q14.854 17.833 14.854 17.25Q14.854 16.688 15.292 16.26Q15.729 15.833 16.312 15.833Q16.875 15.833 17.302 16.26Q17.729 16.688 17.729 17.25Q17.729 17.833 17.302 18.271Q16.875 18.708 16.312 18.708ZM12.062 6.021 8.667 1.938Q9.396 1.625 10.115 1.458Q10.833 1.292 11.688 1.292Q12.958 1.292 14 1.625Q15.042 1.958 15.938 2.667ZM9.854 15.292Q7.979 15.292 6.708 14.021Q5.438 12.75 5.438 10.854V4.396L5.188 4.083Q4.979 3.854 4.812 3.74Q4.646 3.625 4.417 3.625Q4.062 3.625 3.854 3.896Q3.646 4.167 3.646 4.688H1.458Q1.458 3.333 2.292 2.385Q3.125 1.438 4.417 1.438Q5.208 1.438 5.802 1.76Q6.396 2.083 6.812 2.646L15.625 13.333Q16.104 13.896 15.781 14.594Q15.458 15.292 14.688 15.292ZM9.854 13.104H12.604L7.625 7.062V10.854Q7.625 11.833 8.26 12.469Q8.896 13.104 9.854 13.104ZM9.854 13.104Q8.896 13.104 8.26 12.469Q7.625 11.833 7.625 10.854V7.062L10.104 10.062L12.604 13.104Z"/></svg>
